X:1
T:Kitty McGee
L:1/8
M:6/8
I:linebreak $
K:D
V:1 treble
V:1
 A |"D" d2 d AFA | d2 d "G"efg | "D"f2 d"Em" e2 d | "A"cec A2 A |$
 "D"d2 d AFA | d2 d "G"efg | "D"f2 d "A"e2 c |  "D"d3- d2 ::$
 A | "D"d2 f afd | "G"e2 f g2 g | "D"f2 d e2 d | "A"cec A3 |$
 "D"a2 a g2 f | "G"e2 e g2 g | "D"fed "A"edc |  "D"d3- d2 :|
